public/svg/layout/more.svg

<?xml version="1.0" encoding="UTF-8" standalone="no"?>
<svg width="24px" height="6px" viewBox="0 0 24 6" version="1.1" xmlns="http://www.w3.org/2000/svg" xmlns:xlink="http://www.w3.org/1999/xlink">
    <defs></defs>
    <g stroke="none" stroke-width="1" fill="none" fill-rule="evenodd">
        <g transform="translate(-857.000000, -1445.000000)" fill="#CACACA">
            <g transform="translate(130.000000, 487.000000)">
                <g transform="translate(1.000000, 452.000000)">
                    <g transform="translate(20.000000, 499.000000)">
                        <g transform="translate(706.000000, 7.000000)">
                            <path d="M3,0 C1.3431458,0 0,1.343146 0,3 C0,4.656854 1.3431458,6 3,6 C4.6568542,6 6,4.656854 6,3 C6,1.343146 4.6568542,0 3,0 L3,0 Z M12,0 C10.343146,0 9,1.343146 9,3 C9,4.656854 10.343146,6 12,6 C13.656854,6 15,4.656854 15,3 C15,1.343146 13.656854,0 12,0 L12,0 Z M21,0 C19.343146,0 18,1.343146 18,3 C18,4.656854 19.343146,6 21,6 C22.656854,6 24,4.656854 24,3 C24,1.343146 22.656854,0 21,0 L21,0 Z" id="Shape"></path>
                        </g>
                    </g>
                </g>
            </g>
        </g>
    </g>
</svg>

<svg width="24" height="6" viewBox="0 0 24 6" xmlns="http://www.w3.org/2000/svg"><path d="M3 0C1.343 0 0 1.343 0 3s1.343 3 3 3 3-1.343 3-3-1.343-3-3-3zm9 0c-1.657 0-3 1.343-3 3s1.343 3 3 3 3-1.343 3-3-1.343-3-3-3zm9 0c-1.657 0-3 1.343-3 3s1.343 3 3 3 3-1.343 3-3-1.343-3-3-3z" fill="#CACACA" fill-rule="evenodd"/></svg>
